X: 8713
T: Crown At Portpatrick, The
R: mazurka
M: 3/4
K: Dmajor
|:AF|D2 cd AF|D2 cd AF|GB ed cB|AB AG FE|
D2 cd AF|D2 cd AF|GB ed cA|d4:|
|:de|f2 fa ge|f2 Ad fd|e2 Ac ef|gf ed cA|
f2 fa ge|f2 Ad fd|ef ge cA|d4:|

